public/pl-logo-desktop-ar.svg

<svg width="162" height="32" viewBox="0 0 162 32" fill="none" xmlns="http://www.w3.org/2000/svg">
<path d="M159.617 0.5C160.702 0.50008 161.587 1.38321 161.587 2.47656V26.4346C161.587 27.4392 160.836 28.2846 159.841 28.4014L132.552 31.5771C131.381 31.7141 130.353 30.796 130.353 29.6113V2.47656C130.353 1.38835 131.237 0.500187 132.323 0.5H159.617ZM152.806 7.17969L145.298 8.23535C144.996 8.27605 144.772 8.53492 144.772 8.8418V10.6914L139.528 9.80078C139.156 9.73736 138.817 10.0263 138.817 10.4043V24.0322C138.817 24.4127 139.156 24.7001 139.528 24.6367L146.981 23.375C147.278 23.3243 147.492 23.0683 147.492 22.7715V18.0176L152.814 18.7637H152.811C153.181 18.8144 153.507 18.5301 153.508 18.1572H153.503V7.78613C153.503 7.41579 153.173 7.12895 152.806 7.17969ZM146.987 11.0635L146.984 11.0664C147.281 11.1171 147.495 11.3732 147.495 11.6699V18.0176L145.305 17.7109C145.004 17.6703 144.78 17.4113 144.78 17.1045V10.6914L146.987 11.0635Z" fill="#7E05E8"/>
<path fill-rule="evenodd" clip-rule="evenodd" d="M78.4933 9.90735V18.6505H80.9679C82.9925 18.6505 83.5548 17.7139 83.5548 15.6984V12.4054H87.548V17.629C87.548 18.3671 87.9701 18.7365 88.42 18.7365C88.8699 18.7363 89.3477 18.1683 89.3478 17.1183V12.4054H93.3409V17.629C93.341 18.3954 93.7907 18.7364 94.2687 18.7365C94.6904 18.7365 95.1407 18.4238 95.1407 17.629V10.8439H99.1339V17.4874C99.1337 21.66 96.4904 23.335 94.044 23.3351C92.132 23.3351 90.8383 22.7672 90.1915 21.6603C89.601 22.6821 88.5322 23.3351 87.1544 23.3351C85.7767 23.3351 84.7082 22.7388 84.1739 21.6603C83.6958 22.5402 82.0362 23.2501 80.4054 23.2501H78.381C76.9748 28.7853 71.379 28.6718 68.3702 27.5079V23.2218C70.7039 24.4423 73.9934 24.7257 74.5001 23.2501H73.5724C69.8044 23.25 67.2452 20.1835 67.2452 16.5499C67.2454 12.9165 69.8045 9.90747 73.2911 9.90735H78.4933ZM73.5724 14.506C72.1385 14.506 71.2385 15.2727 71.2384 16.5499C71.2384 17.8273 72.1383 18.6504 73.5724 18.6505H74.5001V14.506H73.5724Z" fill="#7E05E8"/>
<path d="M91.1749 24.2433C92.4122 24.2433 93.2276 24.9817 93.2276 26.1456C93.2274 27.3093 92.3839 28.0753 91.1749 28.0753C90.1001 28.0752 89.3224 27.4963 89.1368 26.5812C88.9574 27.4963 88.2048 28.0752 87.1544 28.0753C85.8892 28.0753 85.0735 27.2809 85.0733 26.1456C85.0733 25.0101 85.889 24.2433 87.1544 24.2433C88.227 24.2434 88.9612 24.82 89.1378 25.713C89.3203 24.82 90.0782 24.2434 91.1749 24.2433Z" fill="#7E05E8"/>
<path d="M114.543 24.2433C115.78 24.2433 116.596 24.9817 116.596 26.1456C116.596 27.3093 115.78 28.0753 114.543 28.0753C113.306 28.0753 112.462 27.2809 112.462 26.1456C112.462 25.0102 113.278 24.2433 114.543 24.2433Z" fill="#7E05E8"/>
<path d="M42.6681 17.4015C42.6681 21.4041 39.9688 23.3351 37.3536 23.3351C35.8633 23.335 34.2884 22.6538 33.5011 21.6603C33.0511 22.682 31.9267 23.335 30.8302 23.3351C29.5368 23.3351 28.3275 22.6537 27.9337 21.6603C27.5962 22.5969 26.3309 23.3349 25.0939 23.3351C23.8566 23.3351 22.703 22.6538 22.253 21.6603C21.803 22.7104 20.5937 23.3351 19.3565 23.3351C17.7822 23.335 16.6857 22.7671 16.0108 21.6603C14.9423 22.7957 13.6485 23.2501 8.75596 23.2501H7.65928C1.97907 23.2501 -1.42408 17.9126 1.66905 11.5538H6.30967C3.35707 15.0455 4.28493 18.6505 7.94053 18.6505H12.7765C14.5761 18.6505 15.3644 17.7423 15.3644 15.6984V10.7589H19.3565V17.6007C19.3566 18.3103 19.7226 18.7364 20.3692 18.7365C21.1284 18.7365 21.5498 18.0833 21.5499 17.0616V12.4054H25.5431V17.714C25.5431 18.3669 25.825 18.7365 26.3312 18.7365C26.8089 18.7362 27.0898 18.3101 27.0899 17.4874V12.4054H31.0831V17.8273C31.0831 18.395 31.3644 18.7365 31.7862 18.7365C32.2078 18.7363 32.4893 18.3386 32.4894 17.4874V10.8439H36.4825V17.1749C36.4826 18.1398 36.9319 18.7363 37.6065 18.7365C38.2814 18.7365 38.6758 18.14 38.6759 17.1749V6.21692H42.6681V17.4015Z" fill="#7E05E8"/>
<path fill-rule="evenodd" clip-rule="evenodd" d="M60.2716 9.70911C63.6459 9.70911 66.0644 12.3487 66.0646 16.5499C66.0646 21.0067 63.0275 23.335 60.2999 23.3351C58.7814 23.3351 56.5883 22.5683 55.8009 20.1554C54.648 22.3979 52.5388 23.2501 50.0362 23.2501H45.1993V18.6505H49.4737C52.2013 18.6505 53.7483 17.4298 54.4513 14.9318C55.4355 11.412 57.5722 9.70914 60.2716 9.70911ZM62.0997 16.5499C62.0995 13.5128 57.9662 13.5128 57.9659 16.5499C57.9659 19.4455 62.0997 19.5874 62.0997 16.5499Z" fill="#7E05E8"/>
<path d="M113.193 17.2316C113.193 18.1683 113.7 18.7647 114.431 18.7648C115.162 18.7648 115.556 18.2535 115.556 17.2316V9.90735H119.549V17.7706C119.549 21.7164 116.934 23.335 114.347 23.3351C112.35 23.3351 110.776 22.3412 109.96 20.5245C108.413 22.5116 105.658 23.2501 101.187 23.2501H100.315V18.6505H103.506L101.58 8.51672H105.573L107.414 18.2062C108.609 17.7037 109.2 16.6986 109.2 14.8185V6.21692H113.193V17.2316Z" fill="#7E05E8"/>
<path d="M85.5519 6.8136C86.7889 6.81374 87.6045 7.55133 87.6046 8.71497C87.6046 9.87875 86.7608 10.6455 85.5519 10.6456C84.3146 10.6456 83.4708 9.85047 83.4708 8.71497C83.4709 7.5796 84.3147 6.8136 85.5519 6.8136Z" fill="#7E05E8"/>
<path d="M12.1583 6.6427C13.3956 6.6427 14.211 7.38115 14.211 8.54504C14.211 9.70885 13.3674 10.4757 12.1583 10.4757C11.1893 10.4757 10.4612 10.0047 10.1915 9.24133C9.92999 10.0047 9.22481 10.4757 8.27745 10.4757C7.01232 10.4755 6.19744 9.68035 6.19737 8.54504C6.19737 7.40965 7.01226 6.64285 8.27745 6.6427C9.24263 6.6427 9.9341 7.10955 10.1915 7.85364C10.4573 7.1094 11.1711 6.64272 12.1583 6.6427Z" fill="#7E05E8"/>
<path d="M97.0812 5.8761C98.3182 5.87625 99.1339 6.61467 99.1339 7.77844C99.1339 8.94221 98.2901 9.70895 97.0812 9.70911C96.032 9.70911 95.2654 9.15757 95.0567 8.2804C94.8548 9.15744 94.1131 9.70902 93.088 9.70911C91.8226 9.70911 91.0069 8.91394 91.0069 7.77844C91.0069 6.64294 91.8226 5.8761 93.088 5.8761C94.1339 5.87618 94.8579 6.42486 95.0567 7.2804C95.2626 6.42479 96.0112 5.8761 97.0812 5.8761Z" fill="#7E05E8"/>
</svg>

<svg version="1.2" xmlns="http://www.w3.org/2000/svg" viewBox="0 0 162 32" width="162" height="32"><style>.a{fill:#fff}</style><path fill-rule="evenodd" class="a" d="m159.6 0.5c1.1 0 2 0.9 2 2v23.9c0 1-0.8 1.9-1.8 2l-27.2 3.2c-1.2 0.1-2.2-0.8-2.2-2v-27.1c0-1.1 0.8-2 1.9-2zm-6.8 6.7l-7.5 1c-0.3 0.1-0.5 0.3-0.5 0.6v1.9l-5.3-0.9c-0.3-0.1-0.7 0.2-0.7 0.6v13.6c0 0.4 0.4 0.7 0.7 0.6l7.5-1.2c0.3-0.1 0.5-0.3 0.5-0.6v-4.8l5.3 0.8c0.4 0 0.7-0.3 0.7-0.6v-10.4c0-0.4-0.3-0.7-0.7-0.6zm-5.8 3.9c0.3 0 0.5 0.3 0.5 0.6v6.3l-2.2-0.3c-0.3 0-0.5-0.3-0.5-0.6v-6.4zm-68.5-1.2v8.8h2.5c2 0 2.6-1 2.6-3v-3.3h3.9v5.3c0 0.7 0.5 1.1 0.9 1.1 0.5 0 0.9-0.6 0.9-1.7v-4.7h4v5.3c0 0.7 0.5 1.1 1 1.1 0.4 0 0.8-0.3 0.8-1.1v-6.8h4v6.6c0 4.2-2.6 5.9-5.1 5.9q-2.8 0-3.8-1.7c-0.6 1-1.7 1.7-3 1.7-1.4 0-2.5-0.6-3-1.7-0.5 0.9-2.2 1.6-3.8 1.6h-2c-1.4 5.5-7 5.4-10 4.2v-4.3c2.3 1.3 5.6 1.6 6.1 0.1h-0.9c-3.8 0-6.4-3.1-6.4-6.7 0-3.7 2.6-6.7 6.1-6.7zm-4.9 4.6c-1.5 0-2.4 0.8-2.4 2.1 0 1.3 0.9 2.1 2.4 2.1h0.9v-4.2zm17.6 9.8c1.2 0 2.1 0.7 2.1 1.9 0 1.1-0.9 1.9-2.1 1.9-1.1 0-1.9-0.6-2-1.5-0.2 0.9-1 1.5-2 1.5-1.3 0-2.1-0.8-2.1-1.9 0-1.2 0.8-1.9 2.1-1.9 1.1 0 1.8 0.5 2 1.4 0.1-0.9 0.9-1.4 2-1.4zm23.4 0c1.2 0 2 0.7 2 1.9 0 1.1-0.8 1.9-2 1.9-1.3 0-2.1-0.8-2.1-1.9 0-1.2 0.8-1.9 2.1-1.9zm-71.9-6.9c0 4-2.7 6-5.3 6-1.5 0-3.1-0.7-3.9-1.7-0.4 1-1.5 1.7-2.6 1.7-1.3 0-2.5-0.7-2.9-1.7-0.4 0.9-1.6 1.7-2.9 1.7-1.2 0-2.4-0.7-2.8-1.7-0.5 1-1.7 1.7-2.9 1.7q-2.4 0-3.4-1.7c-1 1.1-2.3 1.6-7.2 1.6h-1.1c-5.7 0-9.1-5.4-6-11.7h4.6c-2.9 3.5-2 7.1 1.7 7.1h4.8c1.8 0 2.6-0.9 2.6-3v-4.9h4v6.8c0 0.7 0.3 1.2 1 1.2 0.8 0 1.2-0.7 1.2-1.7v-4.7h4v5.3c0 0.7 0.2 1.1 0.8 1.1 0.4 0 0.7-0.5 0.7-1.3v-5.1h4v5.5c0 0.5 0.3 0.9 0.7 0.9 0.4 0 0.7-0.4 0.7-1.3v-6.6h4v6.3c0 1 0.5 1.6 1.1 1.6 0.7 0 1.1-0.6 1.1-1.6v-11h4zm17.6-7.6c3.4 0 5.8 2.6 5.8 6.8 0 4.5-3 6.8-5.8 6.8-1.5 0-3.7-0.8-4.5-3.2-1.1 2.2-3.2 3.1-5.7 3.1h-4.9v-4.6h4.3c2.7 0 4.3-1.2 5-3.7 1-3.5 3.1-5.2 5.8-5.2zm1.8 6.8c0-3-4.1-3-4.1 0 0 2.9 4.1 3 4.1 0zm51.1 0.7c0 0.9 0.5 1.5 1.3 1.5q1.1 0 1.1-1.5v-7.3h4v7.8c0 4-2.6 5.6-5.2 5.6-2 0-3.6-1-4.4-2.8-1.6 2-4.3 2.7-8.8 2.7h-0.9v-4.6h3.2l-1.9-10.1h4l1.8 9.6c1.2-0.5 1.8-1.5 1.8-3.3v-8.6h4zm-27.6-10.5c1.2 0 2 0.8 2 1.9 0 1.2-0.8 2-2 2-1.3 0-2.1-0.8-2.1-2 0-1.1 0.8-1.9 2.1-1.9zm-73.4-0.1c1.2 0 2 0.7 2 1.9 0 1.1-0.8 1.9-2 1.9-1 0-1.7-0.5-2-1.2-0.2 0.7-1 1.2-1.9 1.2-1.3 0-2.1-0.8-2.1-1.9 0-1.2 0.8-1.9 2.1-1.9 1 0 1.7 0.4 1.9 1.2 0.3-0.8 1-1.2 2-1.2zm84.9-0.8c1.2 0 2.1 0.7 2.1 1.9 0 1.2-0.9 1.9-2.1 1.9-1 0-1.8-0.5-2-1.4-0.2 0.9-1 1.4-2 1.4-1.3 0-2.1-0.8-2.1-1.9 0-1.1 0.8-1.9 2.1-1.9 1.1 0 1.8 0.6 2 1.4 0.2-0.8 0.9-1.4 2-1.4z"/></svg>
